X:1
T:Piano Sonata No. 26, Movement 1
T:Piano Sonata No. 26, Movement 1
T:Ludvig van Beethoven
C:Ludvig van Beethoven
%%score { ( 1 3 5 ) | ( 2 4 6 ) }
L:1/8
Q:1/4=30
M:2/4
K:Eb
V:1 treble nm="Piano" snm="Pno."
V:3 treble 
V:5 treble 
V:2 bass 
V:4 bass 
V:6 bass 
V:1
!p!"^Adagio.""_espressivo" [EG]2 [B,F]2 | [G,E]3 (E/>A/) | G(G/>_d/) cc/>=d/ | (e>c=B) g/e'/ | %4
"_cresc." e'>c' =b_b |!>(! b2-!>)! (3b/(B/c/) (3(=A/B/)._A/ | [B,_D=EG]2 [A,=DF]2 | %7
 [_G,_E]3 (_G/>_c/) | _c(B/>_f/) ee/>=f/ | (_g>ed) _d/>e/ | _f3/2e/4_d/4!<(! _c!>(!e!<)!!>)! | %11
 [DABd] z z/ ([DABd]/[E_GBe]/)[EGBe]/ | [FBf] z z/!<(! ([Bd]/!>(![Be]/!<)!!>)![Be]/) | %13
 [Bf] z z/!<(! ([Bf]/!<)!!>(![Bg]/!>)![Aa]/) | [Aa] z z/ [Bf]/[Bg]/[Aa]/ | z [Aa] z [Aa] |: %16
[M:4/4]"^Allegro."[Q:1/4=220]"^\n"!f! x6 (dg) | g2 (cf) f2 (Be) |!>(! (e4!>)! d2!p! e2 | %19
 f2 g2 a2 b2) |"_cresc." .[GBg]2 z2 .[Bb]2 z2 | [bb']6 ([Bb]2- | [Bb]6 [Gg]2 | %23
 [Ff]2 [Dd]2 [_C_c]2 [B,B]2) |"_cresc." .[B,B]2 z2 .[Bb]2 z2 | [bb']6 ([Bb]2- | [Bb]6 [Gg]2 | %27
 [=E=e]2 [Ff]2 [Cc]2 [_E_e]2) | [Dd]B=AB [Ac][Bd][ce][df] | [eg]4 [ac'][gb][fa][eg] | %30
 [df]2 z2!8va(! [a'c''][g'b'][f'a'][e'g']!8va)! | %31
 [d'f']2 ([dc'][eb] [=Ba][cg])"_cresc.".[Gf].[^ef] | %32
 .[dg].[d^f=a].[dg=b].[dgb] .[egc'].[=fbd'].[gc'e'].[gc'=e'] |!f! .[gc'=e']2 z2!f! .[fc'f']2 z2 | %34
 (e6 .f2) | _g8 | (e6 .f2) | g8 |!p! ._g2 (B=A BABA | .f2) (c=B cBcB | .f2) (dc .f2) (cB | %41
 .f2) (B=A .f2) (cB) | ._g2 (B=A BABA | .f2) (c=B cBcB | .f2) (dc .f2) (c=B | .f2) dc (f2 [ce]2- | %46
 [ce]2 [Bd]2 [=Ac]2) ([c'e']2- | [c'e']2 [bd']2 c'2) (g'2- | g'2 f'4 e'2) |"_espressivo" d'8 | %50
 c'8 | b4 (g2 f2) | (f2 e2 d2 c2) | d8 | c8 | B4 (G2 F2) |[K:bass] (F2 E2 D2 C2) | B,4- B,F,D,B,- | %58
 B,B,=A,B, x x x x |[K:treble] B4- BFDB- | BB=AB cdec | (dc B3 G F2- | FE D3[K:bass] C B,2- | %63
 B,G, F,3 E, D,2- | D,C, B,,3 C, B,,2- |!p! B,,2) z2 z4 | z8 |1[K:treble] [Bf]8 | [Bg]8 :|2 [Bf]8 | %70
 [Aa]8 ||!f! [Gg]6 (dg) | .[Gg]2 (cf) .[Ff]2 (ce) | .[Ee]2 (=Ad) .[DGd]2 (gc') |!p! F8 | E8 | %76
 [_G=Ae]8- | [GAe]6 [FB_d]2 | _d8 | c8 | [cd^f=a]8- | [cdfa]8 | c8 | _c8 | [_ce_g=a]8- | [cega]8 | %86
 _c8 | B8 | [Bdfa]8- | ([Bdfa]2 b2 _c'2 b2) | [Bdfa]8- | ([Bdfa]2"_cresc." [fb]2 [_g_c']2 [fb]2) | %92
!f! x6 (a_d') | _d'2 (f_c') x4 |!p! [Aa]2 [_G_g]2 [Ff]2 [Gg]2 | [A_ca]8 |"_dim." [A=Ba]8 | [Gcg]8 | %98
 [FG=Bf]8 | [EGce]8 | [FA=Bd]8 | [EGc]8 | [=B,DFA]8 | [CEG]8 | [CEA]8 |!pp! [EA]8 | [DA]8 | [EA]8 | %108
 [EA]8 |"_cresc." [EA]6 (A,A) | (A,A) (Aa) (Aa)(Aa) |!f! x6 (dg) | g2 (cf) f2 (Be) | %113
!>(! (e4!>)! d2!p! e2 | f2 g2 a2 b2) |"_cresc." .[GBg]2 z2 .[Bb]2 z2 | [bb']6 ([Bb]2- | %117
 [Bb]6 [Gg]2 | [Ff]2 [Dd]2 [_C_c]2 [B,B]2) |"_cresc." .[B,B]2 z2 .[Bb]2 z2 | [bb']6 ([Bb]2- | %121
 [Bb]6 [Gg]2 | [=E=e]2 [Ff]2 [Cc]2 [_E_e]2) | [eg]4 [ac'][gb][fa][eg] | %124
 [df]2 ([=Ba][cg] [Gf][e^f])"_cresc.".[dg].[df=a] | %125
 .[dg=b].[dgb].[egc'].[fbd'] .[gc'e'].[gc'=e'].[fc'f'].[fc'f'] |!f! .[fbd']2 z2 .[ebe']2 z2 | %127
 (A6 .B2) | _c8 | (A6 .B2) | c8 |!p! ._c2 (ED EDED | .B2) (F=E FEFE | .B2) (GF .B2) (FE | %134
 .B2) (ED .B2) (FE) | ._c'2 (ed eded | .b2) (f=e fefe | .b2) (gf .b2) (f_f | .b2) gf (b2 [fa]2- | %139
 [fa]2 [eg]2 [df]2)!8va(! ([f'a']2- | [f'a']2 [e'g']2 f'2) (c''2- | c''2 b'4 a'2)!8va)! | %142
"_espressivo" [gg']8 | [ff']8 | e'4 (c'2 b2) | (b2 a2 g2 f2) |"_espressivo" [Gg]8 | [Ff]8 | %148
 e4 ([Ac]2 [GB]2) | (B2 A2 G2 F2) | E4- EB,G,E- | EEDE x x x x | e4- eBGe- | eede fgaf | %154
!p! (gf e3 c B2- | BA G3 F E2- | E[K:bass] C B,3 A, G,2- | G,F, E,3 F, E,2- |!p! E,2) z2 z4 | z8 | %160
[K:treble] [eb]8 | [_d_d']8 |!f! [cc']6 ([cf][_db]) | [_db]2 ([Be][ca]) [ca]2 ([Ad][Bg]) | %164
 [Bg]2 ([Gc][Af]) [Af]2 [Ff]2 |!>(! ([Ff]4 [=E=e]2!>)!!p! [Fcf]2 | [Gcg]2 [Aca]2 [Bcb]2 [Gc=eg]2) | %167
"_cresc." .[Acfa]2 z2 .[cc']2 z2 | [c'c'']6 ([cc']2- | [cc']6 [Aa]2 | %170
 [Ff]2 [=E=e]2 [_D_d]2 [Cc]2) |"_cresc." [Cc]2 z2 .[cc']2 z2 | [c'c'']6 ([cc']2- | [cc']6 [Aa]2 | %174
 [Ff]2 [Dd]2 [_C_c]2 [B,B]2) |"_cresc." [B,B]2 z2 .[Bb]2 z2 | [bb']6 ([Bb]2- | [Bb]6 [_G_g]2 | %178
 [Ff]2 [Dd]2 [_C_c]2 [B,B]2) |!f! [B,B]2 z2 .[Bb]2 z2 |!8va(! [bb']2 z2 [_c'_c'']2!8va)! z2 | %181
!p! _c8 | B8 | A2 z2 z4 | z8 | c8 | B8 | =A2 z2 z4 | z8 | f8 | e8 | d2 z2 z4 | z8 | %193
"_cresc." [Bb]8 | [Aa]8 | [Gg]8- |!>(! ([Gg]4 [Aa]2 [Ff]2)!>)! |"_dolce" [eg]8 | [Bf]8 | %199
 ([Ge]4 [Ac]2 [GB]2) | ([GB]2 [FA]2 [EG]2 [B,F]2) | (EB,CB, =A,B,GE | DEFG A=AcB | =ABcB ABge | %204
 defg a=ac'b) |"_cresc."!8va(! =abc'b abg'e' | d'e'f'g' a'=a'c''b' | =a'b'_a'g'!8va)! f'e'd'c' | %208
 bagf!>(! edfa!>)! |!p!"_dolce" [eg]8 | [Bf]8 | ([Ge]4 [Ac]2 [GB]2) | ([GB]2 [FA]2 [EG]2 [B,F]2) | %213
 (EB,CB, =A,B,GE | DEFG A=AcB | =ABcB ABge | defg a=ac'b) |"_cresc."!8va(! (=abc'b abg'e' | %218
 d'e'f'g' a'=a'c''b') | b'!8va)!BcB =ABge | defg a=ac'b | bB,CB, =A,B,GE |"_dim." =A,B,AF DcBD | %223
!p! E8 | B,8 | G,2 z2 z4 | z8 | [EG]8 | [B,F]8 | [G,E]2 z2 z4 | z4 z2 [EG]2 | [B,F]8 | %232
 [G,E]2 z2 z2 [eg]2 | [Bf]8 | [Ge]2 z2 z2!8va(! [e'g']2 | z2 ([e'g']2 [bf']2 [ge']2) | %236
 [ge']2!8va)! z2 z4 | z2 ([EG]2 [B,F]2 [G,E]2) | [G,E]2 z2 z4 |[K:bass] [F,B,]6 .[E,G,]2 | %240
 [F,B,]6 .[E,G,]2 | [F,B,]6 .[E,G,]2 |"_cresc." [D,F,B,]6 .[F,A,D]2 |!p! [G,E]2 z2 z4 | z8 | %245
[K:treble] EFED EFGA | Bcde fgab |!8va(! (3c'2 d'2 e'2 f'g'a'b' |!pp! (c''4 b'2) z2 | %249
 e'f'e'd' (5:4:5e'f'g'a'b' |!pp! (c''4 b'2) z2 | e'f'e'd' (5:4:5e'f'g'a'b' |"_cresc." ([c'c'']8 | %253
 [bb']2)!8va)! z2 z4 |[K:bass]!f! .[F,A,B,D]2 z2 z4 | .[G,B,E]2 z2 z4 |] %256
V:2
 z4 | [C,,C,]3 [C,E,] | [B,,=E,][B,,E,][=A,,F,][_A,,^F,] | (G,=A,=B,) z |[K:treble] G=A=B_B | %5
 B2- B z |[K:bass] z2 [B,,,B,,]2 | [_C,,_C,]3 [C,_G,] | [_D,_G,][D,G,][C,G,][B,,G,-] | G,F,F,_F,- | %10
 F,E,E,[B,,_G,] | [F,,B,,F,] z z/ ([F,,B,,F,]/[E,,B,,E,]/)[E,,B,,E,]/ | %12
 [D,,B,,D,] z z/[K:treble] ([FA]/[E_G]/[EG]/) | [DF] z z/ ([DF]/[_DE]/[_CE]/) | %14
 [_CE] z z/ ([DF]/[_DE]/[=CE]/) | z [CE] z [CE] |:[M:4/4][K:bass] [CE]6 [=B,D][_B,_D] | %17
 [B,_D]2 [=A,C][_A,_C] [A,C]2 [G,B,][^F,=A,] | [F,A,]6 [E,G,]2 | %19
 [D,F,]2 [C,E,]2 [B,,D,]2 [B,,D,F,]2 | E,,B,,G,B,, E,,B,,G,B,, | F,,B,,A,B,, F,,B,,A,B,, | %22
 G,,B,,B,B,, G,,B,,B,B,, | A,,B,,A,B,, B,,,B,,F,B,, | E,,B,,G,B,, E,,B,,G,B,, | %25
 F,,B,,A,B,, F,,B,,A,B,, | G,,E,B,E, G,,E,B,E, | A,,E,CE, =A,,F,CF, | [B,,B,]2 ED CB,=A,_A, | %29
 G,F,E,D, E,F,G,A, |[K:treble] (B,2 CD EFGA) | B2 (AG FE).D.C | %32
[K:bass] .=B,.=A,.G,.^F, .E,.D,.C,.[B,,C,] | .[B,,C,]2 z2 .[=A,,C,]2 z2 | C,8- | C,8 | C,8- | C,8 | %38
 [F,,C,]2 z2 z4 | [F,,D,]2 z2 z4 | [F,,E,]2 z2 [F,,D,]2 z2 | [F,,C,]2 z2 [F,,D,]2 z2 | %42
 [F,,C,]2 z2 z4 | [F,,D,]2 z2 z4 | [F,,E,]2 z2 [F,,D,]2 z2 | [F,,E,]2 z2 (F,2 G,=A, | %46
 B,CDE F2)[K:treble] (G=A | Bcde f2) (e2 | d2 _d2 c2 F2) | B,2 [^C=E]4 [DF]2 | B,2 =A6 | %51
 (B,2 [DF]2 [EG]2 [DF]2) |[K:bass] (D2 [CE]2 [B,D]2 [=A,C]2) | B,,2 [^C,=E,]4 [D,F,]2 | %54
 B,,2 =A,4 F,2 | B,,2 [D,F,]2 [E,G,]2 [D,F,]2 | D,2 [C,E,]2 [B,,D,]2 [=A,,C,]2 | %57
 ([B,,,B,,]3 _G,, F,,2 B,,,2) | F,,,2 E,D, C,B,,[F,,=A,,]F, | B,,3 _G, F,2 B,,2 | %60
 F,,2 ED CB,[F,=A,]C | ([B,D]3 C B,3 G, | F,3 E, D,3 C, | B,,3 G,, F,,3 E,, | %64
 D,,3 C,, B,,,3)[K:treble] [FA] | [FA]8 | [EG]8 |1 [DF]8 | [_DE]8 :|2 [DF]8 | [CE]8 || %71
 [=B,D]6[K:bass] [_B,D]2 | [=A,C]2 z2 [_A,C]2 z2 | [G,C]2 [^F,C]2 [=F,G,=B,]2 [E,G,C]2 | z8 | z8 | %76
 z2 (C,_G,) G,2 (=A,,E,) | E,2 (F,,C,) C,2 _D,2 | z8 | z8 |[K:treble] z2 (D=A) A2[K:bass] (^F,C) | %81
 C2 (D,=A,) A,2 (D,,D,) | z8 | z8 | z2 (_G,E) E2 (E,_C) | C2 (_C,_G,) G,2 (_G,,E,) | z8 | z8 | %88
 z2 (G,F) F2 (F,D) | D2 ([D,F,][F,A,]) [F,A,]2 ([D,F,][F,A,]) | z2 (A,F) F2 (F,D) | %91
 D2[K:treble] (d2 e2 d2) | [_DGB]6 [_CFA]2 | [B,_D_G]2[K:bass] [A,D]2 [F,D]2 [_G,D]2 | %94
 [_CE]2 [B,_D]2 [A,C]2 [_G,B,]2 | z2 (F,,_D,) .D,2 (F,_D) | z2 (F,,D,) .D,2 (F,D) | %97
 z2 (E,,C,) .C,2 (E,C) | z2 (D,,=B,,) .B,,2 (D,=B,) | z2 (((C,,C,))) .C,2 (((C,C))) | %100
 z2 (((((C,,C,))))) .C,2 (((((C,C))))) | z2 ((((C,,C,)))) .C,2 ((((C,C)))) | %102
 z2 ((((C,,C,)))) .C,2 ((((C,C)))) | z2 ((((C,,C,)))) .C,2 ((((C,C)))) | %104
 z2 ((((C,,C,)))) .C,2 ((((C,C)))) | z2 (C,C) (C,C) z2 | z2 (=B,,=B,) (B,,B,) z2 | %107
 z2 (C,C) (C,C) z2 | z2 (C,C) (C,C) z2 | z2 (C,C) (C,C)(C,C) | (C,C) (CE) (CE)(CE) | %111
 [CE]6 ([=B,D][_B,_D]) | [B,_D]2 ([=A,C][_A,_C]) [A,C]2 ([G,B,][^F,=A,]) | [F,A,]6 [E,G,]2 | %114
 [D,F,]2 [C,E,]2 [B,,D,]2 [B,,D,F,]2 | E,,B,,G,B,, E,,B,,G,B,, | F,,B,,A,B,, F,,B,,A,B,, | %117
 G,,B,,B,B,, G,,B,,B,B,, | A,,B,,A,B,, B,,,B,,F,B,, | E,,B,,G,B,, F,,B,,A,B,, | %120
 G,,E,B,E, G,,E,B,E, | A,,E,CE, =A,,E,CE, | .[B,,B,]2 ED CB,=A,_A, | G,F,E,D, E,F,G,A, | %124
 B,2 (FE DC).=B,.=A, | .G,.^F,.E,.D, .C,.B,,.[=A,,C,].[A,,C,] | .[A,,B,,]2 z2 .[G,,B,,]2 z2 | %127
 F,8- | F,8 | F,8- | F,8 | [B,,F,]2 z2 z4 | [B,,G,]2 z2 z4 | [B,,A,]2 z2 [B,,G,]2 z2 | %134
 [B,,F,]2 z2 [B,,G,]2 z2 |[K:treble] [B,F]2 z2 z4 | [B,G]2 z2 z4 | [B,A]2 z2 [B,G]2 z2 | %138
 [B,A]2 z2 (B,2 CD | EFGA B2) (cd | efga b2) (a2 | g2 _g2 f2 B2) | E2 [^F=A]4 [GB]2 | E2 d6 | %144
 (E2 [GB]2 [Ac]2 [GB]2) | (G2 [FA]2 [EG]2 [DF]2) |[K:bass] E,2 ([^F,=A,]4 [G,B,]2) | z2 D4 B,2 | %148
 [E,G,B,]4 [A,,E,A,]2 [E,,E,]2 | B,,,2 B,,2 B,,,2 B,,2 | (E,,3 _C, B,,2 E,,2) | %151
 B,,,2 A,G, F,E,D,B, | (E,3 _C B,2 E,2) | B,,2 AG FEDF | ([EG]3 F E3 C | B,3 A, G,3 F, | %156
 E,3 C, B,,3 A,, | G,,3 F,, E,,3)[K:treble] [B_d] | [B_d]8 | [Ac]8 | [GB]8 | [FA]8 | %162
 [=EG]6 ([_E=A][_DF]) | [_DF]2 ([DG][CE]) [CE]2 ([CF][B,D]) | %164
 [B,_D]2 ([B,=E][A,C]) [A,C]2[K:bass] [A,=B,]2 | [G,B,]6 [F,A,]2 | %166
 [=E,G,]2 [D,F,]2 [C,E,]2 [C,E,G,B,]2 | F,,C,A,C, F,,C,A,C, | G,,C,B,C, G,,C,B,C, | %169
 A,,C,CC, A,,C,CC, | B,,C,B,C, B,,,B,,G,B,, | F,,C,A,C, F,,C,A,C, | G,,C,B,C, G,,C,B,C, | %173
 A,,C,CC, F,,C,A,C, | D,,B,,F,B,, D,,B,,F,B,, | E,,B,,_G,B,, E,,B,,G,B,, | F,,C,A,C, F,,C,A,C, | %177
 _G,,B,,B,B,, G,,B,,B,B,, | A,,B,,A,B,, B,,,B,,F,B,, | E,,B,,_G,B,, F,,B,,G,B,, | %180
 G,,E,B,E, A,,E,_CE, | z8 | z8 | _C8 | B,8 | =A,2 z2 z4 | z8 | C8 | B,8 | A,2 z2 z4 | z8 | %191
[K:treble] [FA]8 | [EG]8 | [DF]8 | [CE]8 | [=B,D]8 | (E4 F2 D2) |[K:bass] z B,CB, =A,B,G,E, | %198
 A,F,D,B,, A,,F,,D,,B,,, | E,,F,,G,,A,, B,,C,D,E, | (F,G,A,=A, B,2 _A,2) | [E,G,]8 | [B,,F,]8 | %203
[K:treble] [EG]8 | [B,F]8 | [eg]8 | [Bf]4 [ABdf]4 | [GB]4 [EG]4 | [B,FA]4 [B,FA]4 | %209
[K:bass] z B,CB, =A,B,G,E, | A,F,D,B,, A,,F,,D,,B,,, | E,,F,,G,,A,, B,,C,D,E, | %212
 (F,G,A,=A, B,2 _A,2) | [E,G,]8 | [B,,F,]8 |[K:treble] [EG]8 | [B,F]8 | [eg]8 | [Bf]4 [ABf]4 | %219
 [GB]2 [EG]4 [EG]2 |[K:bass] [B,F]4 [A,B,F]4 | [G,B,]2 [E,G,]4 [E,G,]2 | [B,,F,A,]4 [B,,F,A,]4 | %223
 z8 | z8 | E,8 | B,,8 | G,,2 z2 z4 | z8 | [E,G,]8 | [B,,F,]8 | [G,,E,]2 z2 z2 [E,G,]2 | [B,,F,]8 | %233
 [G,,E,]2 z2 z2[K:treble] [EG]2 | [B,F]8 | [G,E]2 z2 z4 | z2 ([eg]2 [Bf]2 [Ge]2) | [Ge]2 z2 z4 | %238
[K:bass] z2 ([E,G,]2 [B,,F,]2 [G,,E,]2) | z2 .[B,,D,]2 .E,,2 z2 | z2 .[B,,D,]2 .E,,2 z2 | %241
 z2 .[B,,D,]2 .E,,2 z2 | z2 .B,,2 .B,,,2 .B,,2 |!pp! E,,8 | [D,,E,,]8 | [C,,E,,]8 | [B,,,E,,]8 | %247
 [A,,,E,,]8 | [G,,,E,,]8 | [A,,,E,,]8 | [G,,,E,,]8 | [A,,,E,,]8 | [G,,,E,,]2 z2 z4 | z8 | %254
 .[B,,,D,,F,,B,,]2 z2 z4 | .[E,,G,,B,,E,]2 z2 z4 |] %256
V:3
 x4 | x4 | x4 | E[E^F][DG] z | e[e^f] [dg][dg] | de f/ z/ z | x4 | x3 E | _FFE z | ccBB- | %10
 BBA[EB] | x4 | x4 | x4 | x4 | x4 |:[M:4/4] [Aa]6 G2 | G2 F2 F2 E2 | [AB]6 [EB]2 | %19
 [FB]2 [GB]2 [AB]2 B2 | x8 | x8 | x8 | x8 | x8 | x8 | x8 | x8 | x8 | x8 | x4!8va(! x4!8va)! | x8 | %32
 x8 | x8 | B8- | B2 (B=A BABA) | B8- | B2!>(! (B=A BABA)!>)! | x8 | x8 | x8 | x8 | x8 | x8 | x8 | %45
 x8 | F4 x2 x2 | f4 =a2 [ac']2 | [fb]2 [fb]2 [gb]2 [=ac']2 | d'fgf gfgf | c'efe fefe | dBcB gBfB | %52
 BF=AF BFcF | dFGF GFGF | cEFE FEFE | EB,CB, GB,FB, |[K:bass] B,F,=A,F, B,F,CF, | %57
 B,_G,- [D,G,]2- [D,G,] x x2 | F,4 CDEC |[K:treble] B(_G [DG]2-) [DG] z x2 | F4 x4 | x8 | %62
 x5[K:bass] x3 | x8 | x8 | x8 | x8 |1[K:treble] x8 | x8 :|2 x8 | x8 || x8 | x8 | x2 x2 x2 c2 | x8 | %75
 x8 | x8 | x8 | x8 | x8 | x8 | x8 | x8 | x8 | x8 | x8 | x8 | x8 | x8 | x8 | x8 | x8 | [egbe']6 f2 | %93
 _g2 _c2 [ca_c']2 [Bgb]2 | x8 | x8 | x8 | x8 | x8 | x8 | x8 | x8 | x8 | x8 | x8 | x8 | x8 | x8 | %108
 x8 | x8 | x8 | [Aa]6 G2 | G2 F2 F2 E2 | E4 D2 [EB]2 | [FB]2 [GB]2 [AB]2 B2 | x8 | x8 | x8 | x8 | %119
 x8 | x8 | x8 | x8 | x8 | x8 | x8 | x8 | E8- | E2 (ED EDED) | E8- | E2!>(! (ED EDED)!>)! | x8 | %132
 x8 | x8 | x8 | x8 | x8 | x8 | x8 | B4 x2!8va(! x2 | b4 d'2 [d'f']2 | %141
 [be']2 [be']2 [c'e']2 [d'f']2!8va)! | gbc'b c'bc'b | faba baba | gefe c'ebe | bBdB eBAB | %146
 GBcB cBcB | FABA BABA | AEFE CEB,E | GB,FA, EG,DF, | E_C- [G,C]2- [G,C] x x2 | B,4 FGAF | %152
 e(_c [Gc]2-) [Gc] z x2 | B4 x4 | x8 | x8 | x[K:bass] x7 | x8 | x8 | x8 |[K:treble] x8 | x8 | x8 | %163
 x8 | x8 | x8 | x8 | x8 | x8 | x8 | x8 | x8 | x8 | x8 | x8 | x8 | x8 | x8 | x8 | x8 | %180
!8va(! x6!8va)! x2 | x8 | x8 | x8 | x8 | x8 | x8 | x8 | x8 | x8 | x8 | x8 | x8 | x8 | x8 | x8 | %196
 x8 | x8 | x8 | x8 | x8 | x8 | x8 | x8 | x8 |!8va(! x8 | x8 | x4!8va)! x4 | x8 | x8 | x8 | x8 | %212
 x8 | x8 | x8 | x8 | x8 |!8va(! x8 | x8 | x!8va)! x7 | x8 | x8 | x8 | x8 | x8 | x8 | x8 | x8 | x8 | %229
 x8 | x8 | x8 | x8 | x8 | x6!8va(! x2 | x8 | x2!8va)! x6 | x8 | x8 |[K:bass] x8 | x8 | x8 | x8 | %243
 x8 | x8 |[K:treble] x8 | x8 |!8va(! x8 | x8 | x8 | x8 | x8 | x8 | x2!8va)! x6 |[K:bass] x8 | x8 |] %256
V:4
 x4 | x4 | x4 | G,,3 x |[K:treble] G,3 G | [FA][EG][DF][B,D] |[K:bass] x4 | x4 | x4 | %9
 =A,,2 B,,_A,, | G,,2 A,,_G,, | x4 | x5/2[K:treble] x3/2 | x4 | x4 | x4 |:[M:4/4][K:bass] x8 | x8 | %18
 x8 | x8 | x8 | x8 | x8 | x8 | x8 | x8 | x8 | x8 | x8 | x8 |[K:treble] x8 | x8 |[K:bass] x8 | x8 | %34
 (_G,,6 .F,,2) | E,,8 | (_G,,6 .F,,2) | =E,,8 | x8 | x8 | x8 | x8 | x8 | x8 | x8 | x8 | %46
 x6[K:treble] x2 | x8 | x8 | B,8 | B,8 | B,8 |[K:bass] F,8 | B,,8 | B,,8 | B,,8 | x8 | x8 | x8 | %59
 x8 | x8 | x8 | x8 | x8 | x7[K:treble] x | x8 | x8 |1 x8 | x8 :|2 x8 | x8 || x6[K:bass] x2 | x8 | %73
 x8 | x8 | x8 | x8 | x8 | x8 | x8 |[K:treble] x6[K:bass] x2 | x8 | x8 | x8 | x8 | x8 | x8 | x8 | %88
 x8 | x8 | x8 | x2[K:treble] x6 | x8 | x2[K:bass] x6 | x8 | x8 | x8 | x8 | x8 | x8 | x8 | x8 | x8 | %103
 x8 | x8 | x8 | x8 | x8 | x8 | x8 | x8 | x8 | x8 | x8 | x8 | x8 | x8 | x8 | x8 | x8 | x8 | x8 | %122
 x8 | x8 | x8 | x8 | x8 | (_C,6 .B,,2) | A,,8 | (_C,6 .B,,2) | =A,,8 | x8 | x8 | x8 | x8 | %135
[K:treble] x8 | x8 | x8 | x8 | x8 | x8 | x8 | E8 | E8 | E8 | B,8 |[K:bass] E,8 | E,8 | x8 | x8 | %150
 x8 | x4 x2 B,,2 | x8 | x4 x2 B,2 | x8 | x8 | x8 | x7[K:treble] x | x8 | x8 | x8 | x8 | x8 | x8 | %164
 x6[K:bass] x2 | x8 | x8 | x8 | x8 | x8 | x8 | x8 | x8 | x8 | x8 | x8 | x8 | x8 | x8 | x8 | x8 | %181
 x8 | x8 | x8 | x8 | x8 | x8 | x8 | x8 | x8 | x8 |[K:treble] x8 | x8 | x8 | x8 | x8 | B,8 | %197
[K:bass] x8 | x8 | x8 | B,,8 | x8 | x8 |[K:treble] x8 | x8 | x8 | x8 | x8 | x8 |[K:bass] x8 | x8 | %211
 x8 | B,,8 | x8 | x8 |[K:treble] x8 | x8 | x8 | x8 | x8 |[K:bass] x8 | x8 | x8 | x8 | x8 | x8 | %226
 x8 | x8 | x8 | x8 | x8 | x8 | x8 | x6[K:treble] x2 | x8 | x8 | x8 | x8 |[K:bass] x8 | x8 | x8 | %241
 x8 | x8 | x8 | x8 | x8 | x8 | x8 | x8 | x8 | x8 | x8 | x8 | x8 | x8 | x8 |] %256
V:5
 x4 | x4 | x4 | x4 | x4 | x4 | x4 | x4 | x4 | x4 | x4 | x4 | x4 | x4 | x4 | x4 |:[M:4/4] x8 | x8 | %18
 E4 D2 x2 | x8 | x8 | x8 | x8 | x8 | x8 | x8 | x8 | x8 | x8 | x8 | x4!8va(! x4!8va)! | x8 | x8 | %33
 x8 | x8 | x8 | x8 | x8 | x8 | x8 | x8 | x8 | x8 | x8 | x8 | x8 | x8 | x8 | x8 | x8 | x8 | x8 | %52
 x8 | x8 | x8 | x8 |[K:bass] x8 | x8 | x8 |[K:treble] x8 | x8 | x8 | x5[K:bass] x3 | x8 | x8 | x8 | %66
 x8 |1[K:treble] x8 | x8 :|2 x8 | x8 || x8 | x8 | x8 | x8 | x8 | x8 | x8 | x8 | x8 | x8 | x8 | x8 | %83
 x8 | x8 | x8 | x8 | x8 | x8 | x8 | x8 | x8 | x8 | x8 | x8 | x8 | x8 | x8 | x8 | x8 | x8 | x8 | %102
 x8 | x8 | x8 | x8 | x8 | x8 | x8 | x8 | x8 | x8 | x8 | [AB]6 x2 | x8 | x8 | x8 | x8 | x8 | x8 | %120
 x8 | x8 | x8 | x8 | x8 | x8 | x8 | x8 | x8 | x8 | x8 | x8 | x8 | x8 | x8 | x8 | x8 | x8 | x8 | %139
 x6!8va(! x2 | x8 | x8!8va)! | x8 | x8 | x8 | x8 | x8 | x8 | x8 | x8 | x8 | x8 | x8 | x8 | x8 | %155
 x8 | x[K:bass] x7 | x8 | x8 | x8 |[K:treble] x8 | x8 | x8 | x8 | x8 | x8 | x8 | x8 | x8 | x8 | %170
 x8 | x8 | x8 | x8 | x8 | x8 | x8 | x8 | x8 | x8 |!8va(! x6!8va)! x2 | x8 | x8 | x8 | x8 | x8 | %186
 x8 | x8 | x8 | x8 | x8 | x8 | x8 | x8 | x8 | x8 | x8 | x8 | x8 | x8 | x8 | x8 | x8 | x8 | x8 | %205
!8va(! x8 | x8 | x4!8va)! x4 | x8 | x8 | x8 | x8 | x8 | x8 | x8 | x8 | x8 |!8va(! x8 | x8 | %219
 x!8va)! x7 | x8 | x8 | x8 | x8 | x8 | x8 | x8 | x8 | x8 | x8 | x8 | x8 | x8 | x8 | x6!8va(! x2 | %235
 x8 | x2!8va)! x6 | x8 | x8 |[K:bass] x8 | x8 | x8 | x8 | x8 | x8 |[K:treble] x8 | x8 |!8va(! x8 | %248
 x8 | x8 | x8 | x8 | x8 | x2!8va)! x6 |[K:bass] x8 | x8 |] %256
V:6
 x4 | x4 | x4 | x4 |[K:treble] x4 | x4 |[K:bass] x4 | x4 | x4 | x4 | x4 | x4 | %12
 x5/2[K:treble] x3/2 | x4 | x4 | x4 |:[M:4/4][K:bass] x8 | x8 | x8 | x8 | x8 | x8 | x8 | x8 | x8 | %25
 x8 | x8 | x8 | x8 | x8 |[K:treble] x8 | x8 |[K:bass] x8 | x8 | x8 | x8 | x8 | x8 | x8 | x8 | x8 | %41
 x8 | x8 | x8 | x8 | x8 | x6[K:treble] x2 | x8 | x8 | x8 | x2 (_G4 F2) | x8 |[K:bass] x8 | x8 | %54
 x2 ._G,4 x2 | x8 | x8 | x8 | x8 | x8 | x8 | x8 | x8 | x8 | x7[K:treble] x | x8 | x8 |1 x8 | x8 :|2 %69
 x8 | x8 || x6[K:bass] x2 | x8 | x8 | x8 | x8 | x8 | x8 | x8 | x8 |[K:treble] x6[K:bass] x2 | x8 | %82
 x8 | x8 | x8 | x8 | x8 | x8 | x8 | x8 | x8 | x2[K:treble] x6 | x8 | x2[K:bass] x6 | x8 | x8 | x8 | %97
 x8 | x8 | x8 | x8 | x8 | x8 | x8 | x8 | x8 | x8 | x8 | x8 | x8 | x8 | x8 | x8 | x8 | x8 | x8 | %116
 x8 | x8 | x8 | x8 | x8 | x8 | x8 | x8 | x8 | x8 | x8 | x8 | x8 | x8 | x8 | x8 | x8 | x8 | x8 | %135
[K:treble] x8 | x8 | x8 | x8 | x8 | x8 | x8 | x8 | x2 (_c4 B2) | x8 | x8 |[K:bass] x8 | %147
 x2 ._C4 x2 | x8 | x8 | x8 | x8 | x8 | x8 | x8 | x8 | x8 | x7[K:treble] x | x8 | x8 | x8 | x8 | %162
 x8 | x8 | x6[K:bass] x2 | x8 | x8 | x8 | x8 | x8 | x8 | x8 | x8 | x8 | x8 | x8 | x8 | x8 | x8 | %179
 x8 | x8 | x8 | x8 | x8 | x8 | x8 | x8 | x8 | x8 | x8 | x8 |[K:treble] x8 | x8 | x8 | x8 | x8 | %196
 x8 |[K:bass] x8 | x8 | x8 | x8 | x8 | x8 |[K:treble] x8 | x8 | x8 | x8 | x8 | x8 |[K:bass] x8 | %210
 x8 | x8 | x8 | x8 | x8 |[K:treble] x8 | x8 | x8 | x8 | x8 |[K:bass] x8 | x8 | x8 | x8 | x8 | x8 | %226
 x8 | x8 | x8 | x8 | x8 | x8 | x8 | x6[K:treble] x2 | x8 | x8 | x8 | x8 |[K:bass] x8 | x8 | x8 | %241
 x8 | x8 | x8 | x8 | x8 | x8 | x8 | x8 | x8 | x8 | x8 | x8 | x8 | x8 | x8 |] %256

